X:2
T:The Blarney Pilgrim
R:jig
O:Ireland
M:6/8
L:1/8
K:G
"G" DED   DEG | "D" A2 G ABc | "C" BAG  AGE |     GEA    GED |
"G" DED   DEG | "D" A2 G ABc | "C" BAG  AGE |     GED  D2  z :|
"G" ded   dBG | "D" AGA  BGE | "G" ded  dBG | "D" ABA "G" G3 |
"G" ~g2 e dBA | "D" AGA  BGE | "C" B2 G AGE |     GAG  G2  z :|
"D" A2 D B2 D |     AGG  ABc | "G" BAG  AGE | "C" GEA    GED |
"D" A2 D B2 D |     A2 D ABc | "G" BAG  AGE | "C" GED  D2  z :|
